X:1
T:Stern auf den ich schaue
C:Notensatz: Bernhard Weichel
M:4/4
L:1/4
Q:1/4
K:F
%%score (T1 T2) (B1 B2)
V:T1           clef=treble-8  name="v1"   snm="v1"
V:T2           clef=treble-8  name="v2"   snm="v2"
%V:B1  middle=D, clef=bass      name="Basso I"    snm="B.I"  transpose=-24
%V:B2  middle=D, clef=bass      name="Basso II"   snm="B.II" transpose=-24
%            End of header, start of tune body:
% 
[V:T1]   A3/2 B/ G E | F2 C z | B3/2 c/ A F | G3 z | A3/2 A/ =B B | c2 A F | 
[V:T1]   E3/2 E/ F D | C3 z | B3/2 c/ A F | A2 G z | d3/2 c/ c/B/ B/A/ | G3 z |
[V:T1]  |: c3/2 c/ f e | e d B G  | F3/2 F/ A G | F3/2 z :|
%
[V:T2]   F3/2 G/ E C      | A,2 C z | G3/2  E/ F C | C3 z | C3/2 C/ F F | E2 C2 |
[V;T2]  C3/2 C/ =B, B,  |  C3 z   |  G3/2 E/ F C | C2 C z | F3/2 F/ G G/F/ | E3  z|
[V:T2]  |: C3/2 F/ A G | F2 D2  | C3/2 C/ E E | F3/2 z:|


